assets/efishery/gradding-ikan-fill.svg

<svg width="24" height="25" viewBox="0 0 24 25" fill="none" xmlns="http://www.w3.org/2000/svg">
<path d="M13.6456 7.14343C13.6073 7.26151 13.6799 7.39092 13.8078 7.43248C13.9357 7.47404 14.0705 7.41202 14.1088 7.29394C14.1472 7.17587 14.0746 7.04645 13.9467 7.00489C13.8188 6.96333 13.684 7.02536 13.6456 7.14343Z" fill="#1D1D1D"/>
<path fill-rule="evenodd" clip-rule="evenodd" d="M15.8836 3.98194C14.3374 3.39606 12.4467 3.3712 10.4541 3.93259C10.4621 3.85074 10.4696 3.76959 10.4762 3.6892C10.5217 3.13259 10.5317 2.53525 10.3058 2.07047C10.1832 1.81825 9.99308 1.60685 9.7236 1.46545C9.46286 1.32864 9.15878 1.27344 8.82683 1.27344C8.19402 1.27344 7.641 1.51539 7.26301 1.96897C6.89085 2.41556 6.72851 3.018 6.76507 3.67617C6.79194 4.15995 6.92542 4.68558 7.17431 5.2343C5.06091 6.36643 3.45282 7.95644 2.54565 9.68309C1.60348 11.4764 1.39837 13.47 2.27743 15.1953L2.29037 15.2205C2.19683 15.2862 2.10631 15.3531 2.0197 15.4212C1.69065 15.6799 1.38684 15.9797 1.19804 16.3278C0.999785 16.6935 0.92954 17.1139 1.08428 17.5556C1.23094 17.9741 1.55858 18.3501 2.02217 18.6995C2.63382 19.1604 3.1986 19.4067 3.73077 19.4605C4.27336 19.5154 4.73085 19.365 5.10844 19.1262C5.18187 19.0798 5.2523 19.03 5.31985 18.9779C6.59681 20.71 8.08275 22.1154 9.84857 22.8425C12.2641 23.8372 15.0276 23.4964 18.1751 21.3981C19.74 20.3548 20.7972 19.2768 21.4288 18.137C22.0674 16.9846 22.2438 15.8174 22.125 14.6547C22.008 13.5096 21.6059 12.3789 21.1088 11.2766C20.7552 10.4924 20.3353 9.68514 19.9176 8.88209C19.7525 8.56472 19.5876 8.24787 19.4275 7.93351C19.4108 7.90081 19.3921 7.86987 19.3715 7.84073C19.3358 7.68971 19.2916 7.5394 19.2392 7.38919C19.385 7.31789 19.526 7.24358 19.6596 7.16587C20.0215 6.95549 20.3641 6.70087 20.5995 6.38238C20.8467 6.04792 20.9748 5.64131 20.883 5.18244C20.796 4.74754 20.5239 4.32959 20.1134 3.91913C19.5719 3.37758 19.0469 3.05506 18.5274 2.92769C17.9977 2.79784 17.5237 2.88313 17.1166 3.067C16.7211 3.2456 16.3881 3.51729 16.1189 3.76208C16.0309 3.84206 15.9537 3.91493 15.8836 3.98194ZM9.23232 6.50533C9.23459 5.74547 9.32088 5.01801 9.39469 4.39574C9.42879 4.10825 9.46024 3.84309 9.47949 3.60768C9.52599 3.03929 9.49948 2.69912 9.40641 2.50765C9.36951 2.43175 9.32449 2.38534 9.25897 2.35096C9.18469 2.31198 9.05388 2.27344 8.82683 2.27344C8.45962 2.27344 8.20012 2.40649 8.03123 2.60916C7.85651 2.81882 7.7376 3.15388 7.76353 3.6207C7.78903 4.07977 7.95604 4.64449 8.31695 5.27086C8.36029 5.31884 8.39811 5.37326 8.42886 5.43363C8.4418 5.45902 8.45316 5.48481 8.46297 5.51088C8.66752 5.83026 8.92181 6.16356 9.23232 6.50533ZM3.87354 10.3807C4.63148 8.93812 6.02864 7.53444 7.94874 6.52138C8.35487 7.06267 8.86995 7.61182 9.50139 8.15307C9.51568 8.16531 9.53052 8.17664 9.54582 8.18705C9.43942 8.48818 9.34733 8.81473 9.27149 9.16868C9.14281 9.76917 8.91062 10.4971 8.57063 11.2082C8.9907 11.5021 9.311 11.872 9.52573 12.2287C9.64464 12.4261 9.73797 12.6307 9.79632 12.8287L11.1844 12.6129C11.3826 12.582 11.5738 12.6672 11.682 12.8344C11.7902 13.0017 11.7977 13.2238 11.7016 13.4125L10.6591 15.4585C10.563 15.6472 10.3788 15.7717 10.1799 15.7824C9.98105 15.7932 9.79973 15.6886 9.70817 15.5101L9.06688 14.2603C8.87246 14.3294 8.65206 14.3742 8.42241 14.3941C7.88879 14.4402 7.23464 14.358 6.62116 14.0454C6.51344 13.9905 6.40903 13.9318 6.30846 13.8698L6.26024 13.7733C7.4327 13.7733 8.38241 12.1823 8.73629 11.332C8.57027 11.1998 8.38628 11.0789 8.18477 10.9763C7.60582 10.6813 6.99414 10.5283 6.45795 10.5418C5.95779 10.5544 5.33792 10.7273 5.04207 11.3079C4.74623 11.8885 4.97077 12.4916 5.25456 12.9036C5.49053 13.2462 5.8342 13.5667 6.24668 13.8309C6.08957 13.9054 5.92697 13.9668 5.75882 14.0137C5.11887 14.1923 4.35656 14.1734 3.44608 13.8092L3.33247 13.7638C3.07297 12.7356 3.25292 11.562 3.87354 10.3807ZM11.9934 5.32127C11.3361 5.63145 10.7276 6.10679 10.2349 6.81567C10.2199 6.37705 10.2424 5.9452 10.2799 5.52405C10.3496 5.52223 10.4202 5.51058 10.49 5.48819C11.2931 5.23026 12.0508 5.08413 12.7538 5.03733C12.4995 5.11009 12.2443 5.20289 11.9934 5.32127ZM17.4648 14.0329C17.4316 14.1232 17.3805 14.2085 17.3111 14.2835C16.224 15.4583 15.195 16.093 13.6362 16.8872C11.4018 18.0257 9.033 18.4498 6.9913 18.1807C6.84052 18.1608 6.6911 18.137 6.5433 18.1094C6.88526 18.5718 7.23638 18.9992 7.59752 19.3872C8.06549 19.431 8.73374 19.4598 9.53565 19.4004C11.1585 19.2802 13.3203 18.7996 15.4827 17.358C17.2022 16.2117 18.227 14.9999 18.8395 13.9663C18.4714 14.0387 18.0669 14.0477 17.671 14.039C17.6032 14.0375 17.5344 14.0355 17.4648 14.0329ZM19.2173 10.8001C19.1894 10.7445 19.1613 10.6888 19.133 10.633C19.1198 10.67 19.1064 10.707 19.0926 10.7442C19.135 10.7619 19.1766 10.7805 19.2173 10.8001ZM4.7456 18.1573C4.53835 17.8459 4.33686 17.5266 4.1408 17.2011C3.64472 16.8903 3.20403 16.5098 2.83788 16.058C2.76796 16.1077 2.70114 16.1575 2.63774 16.2073C2.35582 16.429 2.17235 16.6289 2.07711 16.8045C1.99134 16.9627 1.98079 17.0901 2.02803 17.2249C2.08335 17.3828 2.24049 17.6119 2.62398 17.9008C3.14177 18.291 3.53659 18.4358 3.83139 18.4656C4.11579 18.4944 4.35265 18.421 4.57402 18.281C4.6324 18.2441 4.68948 18.2027 4.7456 18.1573ZM19.157 6.30136C19.053 6.36181 18.9415 6.421 18.8236 6.47922C18.3353 5.61496 17.6612 4.93659 16.8503 4.44919C17.0762 4.24878 17.2978 4.08242 17.5282 3.97837C17.7669 3.87057 18.0116 3.83087 18.2893 3.89893C18.5771 3.96948 18.9479 4.16779 19.4063 4.62624C19.7459 4.96578 19.8696 5.2145 19.9024 5.37856C19.9304 5.51864 19.9023 5.64328 19.7953 5.78798C19.6765 5.94865 19.467 6.12111 19.157 6.30136ZM12.46 19.8735C12.3386 19.9647 12.26 20.1099 12.26 20.2734C12.26 20.5496 12.4839 20.7734 12.76 20.7734C13.0362 20.7734 13.26 20.5496 13.26 20.2734C13.26 20.0036 13.0463 19.7837 12.7789 19.7738C12.6719 19.8087 12.5656 19.8419 12.46 19.8735ZM17.2601 17.2802C17.2637 17.5532 17.4862 17.7734 17.76 17.7734C18.0362 17.7734 18.26 17.5496 18.26 17.2734C18.26 17.0205 18.0722 16.8114 17.8283 16.7781C17.6499 16.9456 17.4607 17.1132 17.2601 17.2802ZM19.2858 15.1145C19.2691 15.1644 19.26 15.2179 19.26 15.2734C19.26 15.5496 19.4839 15.7734 19.76 15.7734C20.0362 15.7734 20.26 15.5496 20.26 15.2734C20.26 14.9973 20.0362 14.7734 19.76 14.7734C19.6385 14.7734 19.5271 14.8168 19.4404 14.8889C19.3908 14.9636 19.3393 15.0388 19.2858 15.1145ZM19.76 16.7734C19.9964 16.7734 20.1945 16.9375 20.2466 17.158C20.2066 17.242 20.1633 17.326 20.1168 17.41C20.0543 17.5227 19.9855 17.6363 19.9098 17.7506C19.8625 17.7654 19.8122 17.7734 19.76 17.7734C19.4839 17.7734 19.26 17.5496 19.26 17.2734C19.26 16.9973 19.4839 16.7734 19.76 16.7734ZM18.26 19.2734C18.26 19.3754 18.2295 19.4702 18.1771 19.5493C18.0922 19.6157 18.0047 19.6823 17.9144 19.7492C17.8658 19.7649 17.8139 19.7734 17.76 19.7734C17.4839 19.7734 17.26 19.5496 17.26 19.2734C17.26 18.9973 17.4839 18.7734 17.76 18.7734C18.0362 18.7734 18.26 18.9973 18.26 19.2734ZM11.26 21.2734C11.26 21.4382 11.1804 21.5843 11.0575 21.6754C10.8395 21.6146 10.627 21.5409 10.4197 21.4555C10.3712 21.4355 10.3228 21.4148 10.2745 21.3935C10.2651 21.355 10.26 21.3148 10.26 21.2734C10.26 20.9973 10.4839 20.7734 10.76 20.7734C11.0362 20.7734 11.26 20.9973 11.26 21.2734ZM16.26 19.2734C16.26 19.5496 16.0362 19.7734 15.76 19.7734C15.4839 19.7734 15.26 19.5496 15.26 19.2734C15.26 18.9973 15.4839 18.7734 15.76 18.7734C16.0362 18.7734 16.26 18.9973 16.26 19.2734ZM14.76 21.2734C15.0362 21.2734 15.26 21.0496 15.26 20.7734C15.26 20.4973 15.0362 20.2734 14.76 20.2734C14.4839 20.2734 14.26 20.4973 14.26 20.7734C14.26 21.0496 14.4839 21.2734 14.76 21.2734ZM15.6397 12.9415C15.3185 12.9325 14.9861 12.9311 14.6485 12.9456C15.7292 11.9485 16.8164 11.558 17.6593 11.5135C18.2025 11.4848 18.6293 11.5991 18.9021 11.7653C19.1726 11.93 19.2603 12.1184 19.2603 12.274C19.2603 12.491 19.2189 12.6201 19.1739 12.6986C19.1315 12.7727 19.0675 12.8343 18.9602 12.887C18.7141 13.0078 18.3068 13.0527 17.6929 13.0393C17.3975 13.0328 17.0775 13.0142 16.7301 12.9939L16.726 12.9936C16.383 12.9736 16.0161 12.9521 15.6397 12.9415ZM12.3188 9.46705C12.2092 9.02602 12.1913 8.46694 12.3719 7.91138C12.5422 7.3871 12.8174 6.92838 13.1472 6.61481C13.4548 6.32232 13.9304 6.05412 14.4562 6.22497C14.982 6.39582 15.2091 6.89232 15.286 7.30976C15.3685 7.75728 15.3215 8.29015 15.1512 8.81444C14.9707 9.37 14.6276 9.81179 14.2797 10.1042C14.13 10.2301 13.971 10.3354 13.8129 10.4106L14.1779 11.5451C14.2301 11.7071 14.1841 11.8787 14.0583 11.9915C13.9325 12.1044 13.7473 12.1401 13.5765 12.0846L11.7236 11.4826C11.5528 11.4271 11.424 11.2893 11.3886 11.1241C11.3532 10.9589 11.4168 10.793 11.5542 10.6926L12.5164 9.98935C12.4327 9.8356 12.3659 9.65685 12.3188 9.46705ZM5.96185 12.4208C6.09224 12.4873 6.25628 12.4266 6.32825 12.2854C6.40022 12.1441 6.35286 11.9758 6.22248 11.9093C6.0921 11.8429 5.92806 11.9035 5.85609 12.0448C5.78412 12.186 5.83147 12.3544 5.96185 12.4208Z" fill="#1D1D1D"/>
</svg>

<svg viewBox="0 0 24 25" xmlns="http://www.w3.org/2000/svg">
  <path d="M13.646 7.143c-.039.119.034.248.162.29.128.041.262-.021.3-.14.04-.117-.033-.247-.161-.288-.128-.042-.263.02-.301.138z"/>
  <path fill-rule="evenodd" clip-rule="evenodd" d="M15.884 3.982c-1.547-.586-3.437-.61-5.43-.05.008-.081.016-.162.022-.243.046-.556.056-1.154-.17-1.619a1.32 1.32 0 0 0-.582-.605c-.261-.136-.565-.192-.897-.192-.633 0-1.186.242-1.564.696-.372.447-.534 1.049-.498 1.707.027.484.16 1.01.41 1.558-2.114 1.132-3.722 2.722-4.63 4.45-.942 1.792-1.147 3.786-.268 5.511l.013.025a6.25 6.25 0 0 0-.27.201c-.33.259-.633.559-.822.907a1.48 1.48 0 0 0-.114 1.228c.147.418.475.794.938 1.143.612.461 1.177.708 1.709.761.542.055 1-.095 1.377-.334.074-.046.144-.096.212-.148 1.277 1.732 2.763 3.137 4.529 3.864 2.415.995 5.179.654 8.326-1.444 1.565-1.043 2.622-2.121 3.254-3.261.638-1.152.815-2.32.696-3.482-.117-1.145-.52-2.276-1.016-3.378-.354-.785-.774-1.592-1.191-2.395-.165-.317-.33-.634-.49-.948a.757.757 0 0 0-.056-.093 4.543 4.543 0 0 0-.133-.452c.146-.071.287-.145.42-.223.363-.21.705-.465.94-.784a1.48 1.48 0 0 0 .284-1.2c-.087-.434-.36-.852-.77-1.263-.541-.541-1.066-.864-1.586-.991a2.122 2.122 0 0 0-1.41.139c-.396.179-.729.45-.998.695-.088.08-.165.153-.235.22zM9.232 6.505c.003-.76.089-1.487.163-2.11.034-.287.065-.552.084-.787.047-.569.02-.909-.073-1.1a.322.322 0 0 0-.147-.157c-.074-.039-.205-.078-.432-.078-.367 0-.627.133-.796.336-.174.21-.293.545-.267 1.012.025.459.192 1.023.553 1.65a.75.75 0 0 1 .146.24c.205.32.459.653.77.994zm-5.358 3.876c.757-1.443 2.155-2.847 4.075-3.86.406.542.92 1.09 1.552 1.632.015.012.03.024.045.034a7.934 7.934 0 0 0-.275.982c-.128.6-.36 1.328-.7 2.04.42.293.74.663.955 1.02.119.197.212.402.27.6l1.388-.216c.199-.031.39.054.498.221.108.168.116.39.02.579l-1.043 2.046a.582.582 0 0 1-.48.323.495.495 0 0 1-.47-.272l-.642-1.25c-.195.07-.415.114-.645.134a3.381 3.381 0 0 1-1.8-.349 4.425 4.425 0 0 1-.314-.175l-.048-.097c1.173 0 2.122-1.59 2.476-2.441a3.262 3.262 0 0 0-.551-.356c-.58-.295-1.19-.448-1.727-.434-.5.012-1.12.185-1.416.766-.296.58-.071 1.184.213 1.596.236.342.58.663.992.927a3.05 3.05 0 0 1-.488.183c-.64.178-1.402.16-2.313-.205l-.114-.045c-.259-1.028-.08-2.202.542-3.383zm8.12-5.06a4.395 4.395 0 0 0-1.76 1.495c-.014-.439.008-.87.046-1.292a.751.751 0 0 0 .21-.036 9.487 9.487 0 0 1 2.264-.45c-.255.072-.51.165-.76.283zm5.47 8.712a.748.748 0 0 1-.153.25c-1.087 1.175-2.116 1.81-3.675 2.604-2.234 1.139-4.603 1.563-6.645 1.294-.15-.02-.3-.044-.448-.072.342.463.693.89 1.055 1.278a12.318 12.318 0 0 0 7.885-2.03c1.72-1.145 2.744-2.357 3.357-3.39-.369.072-.773.08-1.169.072a13.557 13.557 0 0 1-.206-.006zm1.753-3.233a43.724 43.724 0 0 0-.084-.167 9.414 9.414 0 0 1-.04.111l.124.056zM4.746 18.157c-.208-.311-.41-.63-.605-.956a5.26 5.26 0 0 1-1.303-1.143c-.07.05-.137.1-.2.15-.282.221-.466.42-.56.597-.087.158-.097.285-.05.42.055.158.212.387.596.676.518.39.913.535 1.207.565.285.028.522-.045.743-.185.058-.037.115-.078.172-.124zM19.157 6.301c-.104.06-.215.12-.333.178a5.5 5.5 0 0 0-1.974-2.03c.226-.2.448-.367.678-.47.239-.108.484-.148.761-.08.288.07.659.269 1.117.727.34.34.464.588.496.753.028.14 0 .264-.107.409-.119.16-.328.333-.638.513zM12.46 19.873a.5.5 0 1 0 .319-.1c-.107.036-.213.069-.319.1zm4.8-2.593a.5.5 0 1 0 .568-.502c-.178.168-.367.335-.568.502zm2.026-2.166a.5.5 0 1 0 .154-.225c-.05.075-.1.15-.154.226zm.474 1.66a.5.5 0 0 1 .487.384 4.636 4.636 0 0 1-.337.593.5.5 0 1 1-.15-.978zm-1.5 2.5c0 .101-.03.196-.083.275-.085.067-.172.133-.263.2a.502.502 0 0 1-.654-.476.5.5 0 0 1 1 0zm-7 2a.5.5 0 0 1-.203.401 5.678 5.678 0 0 1-.783-.282.5.5 0 1 1 .986-.12zm5-2a.5.5 0 1 1-1 0 .5.5 0 0 1 1 0zm-1.5 2a.5.5 0 1 0 0-1 .5.5 0 0 0 0 1zm.88-8.333c-.322-.009-.654-.01-.992.005 1.081-.998 2.168-1.388 3.011-1.432.544-.03.97.085 1.243.251.27.165.358.353.358.509 0 .217-.041.346-.086.425a.466.466 0 0 1-.214.188c-.246.12-.653.166-1.267.152a27.276 27.276 0 0 1-.963-.045h-.004c-.343-.02-.71-.042-1.086-.053zm-3.321-3.474c-.11-.441-.128-1 .053-1.556.17-.524.445-.983.775-1.296.308-.293.783-.56 1.31-.39.525.17.752.667.829 1.085.082.447.036.98-.135 1.504-.18.556-.523.998-.871 1.29-.15.126-.309.231-.467.307l.365 1.134a.42.42 0 0 1-.12.447.494.494 0 0 1-.482.093l-1.852-.602a.494.494 0 0 1-.335-.359.42.42 0 0 1 .165-.431l.962-.704a2.22 2.22 0 0 1-.197-.522zm-6.357 2.954c.13.066.294.006.366-.136.072-.14.025-.31-.106-.376-.13-.066-.294-.006-.366.136-.072.141-.025.31.106.376z"/>
</svg>
